svgs/sharp-solid/fan-table.svg

<svg xmlns="http://www.w3.org/2000/svg" viewBox="0 0 448 512"><!--! Font Awesome Pro 6.6.0 by @fontawesome - https://fontawesome.com License - https://fontawesome.com/license (Commercial License) Copyright 2024 Fonticons, Inc. --><path d="M256 413.6C355.7 398.2 432 312 432 208C432 93.1 338.9 0 224 0S16 93.1 16 208c0 104 76.3 190.2 176 205.6l0 34.4-96 0-32 0 0 64 32 0 128 0 128 0 32 0 0-64-32 0-96 0 0-34.4zM178.9 53.7L224.3 166c18.5-25.3 50-39.8 83.3-35.1c48.1 6.8 81.7 51.3 74.9 99.4l-2.2 15.8-120-16.9c12.6 28.7 9.5 63.2-11.2 89.7c-29.9 38.3-85.2 45.1-123.5 15.2l-12.6-9.8 74.6-95.5c-31.2-3.4-59.5-23.4-72.1-54.5C97.2 129.1 119 77.9 164.1 59.7l14.8-6zM224 224a16 16 0 1 0 0-32 16 16 0 1 0 0 32z"/></svg>

<svg xmlns="http://www.w3.org/2000/svg" viewBox="0 0 448 512"><!--! Font Awesome Pro 6.4.0 by @fontawesome - https://fontawesome.com License - https://fontawesome.com/license (Commercial License) Copyright 2023 Fonticons, Inc. --><path d="M256 413.6C355.7 398.2 432 312 432 208C432 93.1 338.9 0 224 0S16 93.1 16 208c0 104 76.3 190.2 176 205.6V448H96 64v64H96 224 352h32V448H352 256V413.6zM178.9 53.7L224.3 166c18.5-25.3 50-39.8 83.3-35.1c48.1 6.8 81.7 51.3 74.9 99.4l-2.2 15.8-120-16.9c12.6 28.7 9.5 63.2-11.2 89.7c-29.9 38.3-85.2 45.1-123.5 15.2l-12.6-9.8 74.6-95.5c-31.2-3.4-59.5-23.4-72.1-54.5C97.2 129.1 119 77.9 164.1 59.7l14.8-6zM224 224a16 16 0 1 0 0-32 16 16 0 1 0 0 32z"/></svg>
